X: 492
T: Polska efter Lapp-Nils
R: Polska
N: Gammelvänster
S: Efter Lapp-Nils
O: Jämtland
Z: Håkan Lidén, 2008-09-27
B: Jämför [[http://www.smus.se/earkiv/fmk/browselarge.php?lang=sw&katalogid=Upprop+22&bildnr=00180|SMUS - katalog Upprop22 bild 180]] från Tåsjö, [[Platser/Ångermanland]] efter klarinettblåsare [[Personer/Per Bolin]] ([[http://www.smus.se/earkiv/fmk/browselarge.php?lang=sw&katalogid=Upprop+22&bildnr=00158|info]])
M: 3/4
L: 1/8
K: G
d>c B>b g>e | d>c B>A (3GAB | A>B (3cdc (3BAG | A>F (3GAc B2 | d>c B>b g>e | 
d>c B>A (3GAB | A>B (3cdc (3BAG | F2 G4 :: g>f g>a b>g | (3fef (3geg f>d |
g>f g>a b>g | f2 d4 | g>f g>a b>g | (3fef (3gfe d>B | (3GAB (3cdc (3BAG | F2 G4 :|
(:musicend:)
Mer om [[http://sv.wikipedia.org/wiki/Lapp-Nils | Lapp-Nils Jonsson]] i [[http://sv.wikipedia.org/ | Wikipedia]].

(:music:)
